symbolic/24x24/apps/tresorit.svg

<svg xmlns="http://www.w3.org/2000/svg" width="24" height="24" version="1">
 <path style="fill:#4f4f4f" d="m 12.053849,2.0011749 a 2.282762,2.2739121 0 0 0 -1.19548,0.303345 L 4.1414809,6.1674555 a 2.282762,2.2739121 0 0 0 -1.141481,1.9694672 l 0,7.7263713 a 2.282762,2.2739121 0 0 0 1.141381,1.969267 l 6.7168881,3.863136 a 2.282762,2.2739121 0 0 0 2.282762,0 l 6.716888,-3.863136 A 2.282762,2.2739121 0 0 0 20.9994,15.863094 l 0,-7.7263713 A 2.282762,2.2739121 0 0 0 19.857919,6.1672555 L 13.141031,2.3043199 A 2.282762,2.2739121 0 0 0 12.053549,2.000975 Z"/>
 <path style="opacity:0.1;fill:#ffffff" d="m 11.772315,2.01322 a 2.282762,2.2739121 0 0 0 -0.03614,0.00488 2.282762,2.2739121 0 0 1 0.0459,-0.00488 2.282762,2.2739121 0 0 0 -0.0098,0 z M 11.56431,2.043493 a 2.282762,2.2739121 0 0 0 -0.08105,0.018554 2.282762,2.2739121 0 0 1 0.08105,-0.018554 z m -0.218746,0.05371 a 2.282762,2.2739121 0 0 0 -0.07422,0.024414 2.282762,2.2739121 0 0 1 0.07422,-0.024414 z m -0.221676,0.078124 a 2.282762,2.2739121 0 0 0 -0.08398,0.038085 2.282762,2.2739121 0 0 1 0.08398,-0.038085 z m -0.198239,0.092772 a 2.282762,2.2739121 0 0 0 -0.06738,0.036132 2.282762,2.2739121 0 0 1 0.06738,-0.036132 z M 4.1415825,6.1674475 A 2.282762,2.2739121 0 0 0 3.6083883,6.5922455 2.282762,2.2739121 0 0 1 4.1415825,6.1674475 Z M 3.6083883,6.5922455 A 2.282762,2.2739121 0 0 0 3.0068358,7.9906597 2.282762,2.2739121 0 0 1 3.6083883,6.5922455 Z M 3.0068358,7.9906597 a 2.282762,2.2739121 0 0 0 -0.00684,0.146482 l 0,7.7264333 a 2.282762,2.2739121 0 0 0 1.1415826,1.968717 l 6.7166855,3.863217 a 2.282762,2.2739121 0 0 0 1.141582,0.30273 l 0,-7.999867 A 2.282762,2.2739121 0 0 1 10.858268,13.695643 L 4.1415825,9.8324255 A 2.282762,2.2739121 0 0 1 3.0068358,7.9906597 Z"/>
 <path style="opacity:0.1;fill:#ffffff" d="m 12.053349,2.0015249 a 2.282762,2.2739121 0 0 0 -1.19498,0.302695 L 4.1414809,6.1674555 a 2.282762,2.2739121 0 0 0 -1.141481,1.9694672 l 0,0.4999917 A 2.282762,2.2739121 0 0 1 4.1415809,6.6674472 L 10.858469,2.8042116 a 2.282762,2.2739121 0 0 1 1.19528,-0.30273 2.282762,2.2739121 0 0 1 1.087882,0.30273 l 6.716888,3.8632356 A 2.282762,2.2739121 0 0 1 21,8.6369144 L 21,8.1369227 A 2.282762,2.2739121 0 0 0 19.858519,6.1674555 L 13.141631,2.3042199 a 2.282762,2.2739121 0 0 0 -1.087982,-0.302695 z"/>
 <path style="opacity:0.2" d="m 2.9999999,15.863294 0,0.499992 a 2.282762,2.2739121 0 0 0 1.141581,1.968717 l 6.7168881,3.863236 a 2.282762,2.2739121 0 0 0 2.283162,0 l 6.716888,-3.863436 A 2.282762,2.2739121 0 0 0 21,16.362836 l 0,-0.499992 a 2.282762,2.2739121 0 0 1 -1.141581,1.968717 l -6.716888,3.863236 a 2.282762,2.2739121 0 0 1 -2.283162,0 L 4.1414809,17.831361 a 2.282762,2.2739121 0 0 1 -1.141481,-1.968967 z"/>
 <path style="opacity:0.2;fill:#ffffff" d="m 12.05356,2.000525 0,9.749e-4 A 2.282762,2.2739121 0 0 0 10.858268,2.3042308 L 4.1415825,6.1674475 A 2.282762,2.2739121 0 0 0 3.0068358,7.9906597 2.282762,2.2739121 0 0 0 4.1415825,9.8324255 l 6.7166855,3.8632175 a 2.282762,2.2739121 0 0 0 2.283164,0 L 19.858118,9.8324255 A 2.282762,2.2739121 0 0 0 20.992864,8.0082374 2.282762,2.2739121 0 0 0 19.858118,6.1674475 L 13.141432,2.3042308 A 2.282762,2.2739121 0 0 0 12.05356,2.000525 Z"/>
 <path style="opacity:0.2" d="m 15.051557,3.9028135 -12.0515571,6.9578915 0,5.502838 a 2.282762,2.2739121 0 0 0 0.016601,0.260738 L 20.046591,6.7924136 A 2.282762,2.2739121 0 0 0 19.858118,6.6674157 L 15.051557,3.9028135 Z"/>
 <path style="fill:#00cbec" d="m 15.051557,3.4028453 -12.0515571,6.9578917 0,5.502838 a 2.282762,2.2739121 0 0 0 0.016601,0.260738 L 20.046591,6.2924455 A 2.282762,2.2739121 0 0 0 19.858118,6.1674475 L 15.051557,3.4028453 Z"/>
 <path style="fill:#00a7c2" d="m 4.0351389,9.7630911 -1.035139,0.5976459 0,5.502838 a 2.282762,2.2739121 0 0 0 0.015625,0.252926 2.282762,2.2739121 0 0 0 9.75e-4,0.0078 L 9.0370089,12.648785 4.1415825,9.8324255 A 2.282762,2.2739121 0 0 1 4.0351389,9.7630911 Z"/>
</svg>

<svg xmlns="http://www.w3.org/2000/svg" width="24" height="24" version="1"><path style="fill:#4f4f4f" d="M12.054 2.001a2.283 2.274 0 0 0-1.196.304L4.141 6.167A2.283 2.274 0 0 0 3 8.137v7.726a2.283 2.274 0 0 0 1.141 1.97l6.717 3.863a2.283 2.274 0 0 0 2.283 0l6.717-3.863a2.283 2.274 0 0 0 1.141-1.97V8.137a2.283 2.274 0 0 0-1.141-1.97L13.14 2.304a2.283 2.274 0 0 0-1.087-.303z"/><path style="opacity:.1;fill:#fff" d="M11.772 2.013a2.283 2.274 0 0 0-.036.005 2.283 2.274 0 0 1 .046-.005 2.283 2.274 0 0 0-.01 0zm-.208.03a2.283 2.274 0 0 0-.08.019 2.283 2.274 0 0 1 .08-.019zm-.218.054a2.283 2.274 0 0 0-.075.025 2.283 2.274 0 0 1 .075-.025zm-.222.078a2.283 2.274 0 0 0-.084.038 2.283 2.274 0 0 1 .084-.038zm-.198.093a2.283 2.274 0 0 0-.068.036 2.283 2.274 0 0 1 .068-.036zm-6.784 3.9a2.283 2.274 0 0 0-.534.424 2.283 2.274 0 0 1 .534-.425zm-.534.424a2.283 2.274 0 0 0-.601 1.399 2.283 2.274 0 0 1 .601-1.399zm-.601 1.399A2.283 2.274 0 0 0 3 8.137v7.727a2.283 2.274 0 0 0 1.142 1.968l6.716 3.864a2.283 2.274 0 0 0 1.142.302v-8a2.283 2.274 0 0 1-1.142-.302L4.142 9.832a2.283 2.274 0 0 1-1.135-1.841z"/><path style="opacity:.1;fill:#fff" d="M12.053 2.002a2.283 2.274 0 0 0-1.195.302L4.141 6.167A2.283 2.274 0 0 0 3 8.137v.5a2.283 2.274 0 0 1 1.142-1.97l6.716-3.863a2.283 2.274 0 0 1 1.196-.303 2.283 2.274 0 0 1 1.088.303l6.717 3.863A2.283 2.274 0 0 1 21 8.637v-.5a2.283 2.274 0 0 0-1.141-1.97l-6.717-3.863a2.283 2.274 0 0 0-1.088-.302z"/><path style="opacity:.2" d="M3 15.863v.5a2.283 2.274 0 0 0 1.142 1.969l6.716 3.863a2.283 2.274 0 0 0 2.284 0l6.717-3.863A2.283 2.274 0 0 0 21 16.362v-.5a2.283 2.274 0 0 1-1.142 1.97l-6.716 3.863a2.283 2.274 0 0 1-2.284 0L4.141 17.83A2.283 2.274 0 0 1 3 15.862z"/><path style="opacity:.2;fill:#fff" d="M12.054 2v.001a2.283 2.274 0 0 0-1.196.303L4.142 6.167a2.283 2.274 0 0 0-1.135 1.824 2.283 2.274 0 0 0 1.135 1.841l6.716 3.864a2.283 2.274 0 0 0 2.283 0l6.717-3.864a2.283 2.274 0 0 0 1.135-1.824 2.283 2.274 0 0 0-1.135-1.84l-6.717-3.864a2.283 2.274 0 0 0-1.087-.303z"/><path style="opacity:.2" d="M15.052 3.903 3 10.86v5.503a2.283 2.274 0 0 0 .017.26l17.03-9.832a2.283 2.274 0 0 0-.189-.125l-4.806-2.764z"/><path style="fill:#00cbec" d="M15.052 3.403 3 10.36v5.503a2.283 2.274 0 0 0 .017.26l17.03-9.832a2.283 2.274 0 0 0-.189-.125l-4.806-2.764z"/><path style="fill:#00a7c2" d="M4.035 9.763 3 10.361v5.503a2.283 2.274 0 0 0 .016.253 2.283 2.274 0 0 0 0 .007l6.021-3.475-4.895-2.817a2.283 2.274 0 0 1-.107-.069z"/></svg>
